packages/suite-data/files/images/svg/coinmarket-success.svg

<svg width="64" height="54" viewBox="0 0 64 54" fill="none" xmlns="http://www.w3.org/2000/svg">
<path d="M39.6338 14.887C38.8468 14.913 38.1008 15.245 37.5538 15.813C31.7598 21.62 27.3358 26.47 21.9588 31.958L16.2298 27.118C15.9258 26.862 15.5748 26.667 15.1958 26.546C14.8158 26.426 14.4158 26.38 14.0198 26.414C13.6238 26.448 13.2378 26.559 12.8838 26.743C12.5308 26.926 12.2168 27.177 11.9608 27.482C11.7048 27.786 11.5108 28.139 11.3908 28.518C11.2708 28.898 11.2278 29.298 11.2628 29.694C11.2968 30.09 11.4098 30.476 11.5938 30.829C11.7778 31.182 12.0308 31.495 12.3358 31.75L20.1998 38.405C20.7798 38.892 21.5198 39.145 22.2748 39.114C23.0308 39.082 23.7478 38.769 24.2848 38.234C30.7998 31.705 35.4378 26.49 41.8278 20.086C42.2678 19.662 42.5678 19.114 42.6898 18.516C42.8118 17.918 42.7498 17.297 42.5128 16.735C42.2758 16.172 41.8738 15.695 41.3598 15.365C40.8468 15.035 40.2448 14.868 39.6348 14.887H39.6338Z" fill="#E1F2DC"/>
<path d="M49.6338 14.887C48.8468 14.913 48.1008 15.245 47.5538 15.813C41.7598 21.62 37.3358 26.47 31.9588 31.958L26.2298 27.118C25.9258 26.862 25.5748 26.667 25.1958 26.546C24.8158 26.426 24.4158 26.38 24.0198 26.414C23.6238 26.448 23.2378 26.559 22.8838 26.743C22.5308 26.926 22.2168 27.177 21.9608 27.482C21.7048 27.786 21.5108 28.139 21.3908 28.518C21.2708 28.898 21.2278 29.298 21.2628 29.694C21.2978 30.09 21.4098 30.476 21.5938 30.829C21.7778 31.182 22.0298 31.495 22.3358 31.75L30.1998 38.405C30.7798 38.892 31.5198 39.145 32.2748 39.114C33.0308 39.082 33.7478 38.769 34.2848 38.234C40.7998 31.705 45.4378 26.49 51.8278 20.086C52.2678 19.662 52.5678 19.114 52.6898 18.516C52.8118 17.918 52.7498 17.297 52.5128 16.735C52.2758 16.172 51.8738 15.695 51.3598 15.365C50.8468 15.035 50.2448 14.868 49.6348 14.887H49.6338Z" fill="#00B812"/>
</svg>

<svg xmlns="http://www.w3.org/2000/svg" width="64" height="54" fill="none" viewBox="0 0 64 54">
    <path fill="#E1F2DC" d="M39.634 14.887c-.787.026-1.533.358-2.08.926C31.76 21.62 27.336 26.47 21.959 31.958l-5.729-4.84c-.304-.256-.655-.451-1.034-.572-.38-.12-.78-.166-1.176-.132-.396.034-.782.145-1.136.329-.353.183-.667.434-.923.739-.256.304-.45.657-.57 1.036-.12.38-.163.78-.128 1.176.034.396.147.782.331 1.135.184.353.437.666.742.921l7.864 6.655c.58.487 1.32.74 2.075.709.756-.032 1.473-.345 2.01-.88 6.515-6.529 11.153-11.744 17.543-18.148.44-.424.74-.972.862-1.57.122-.598.06-1.219-.177-1.781-.237-.563-.639-1.04-1.153-1.37-.513-.33-1.115-.497-1.725-.478z"/>
    <path fill="#279503" d="M49.634 14.887c-.787.026-1.533.358-2.08.926C41.76 21.62 37.336 26.47 31.959 31.958l-5.729-4.84c-.304-.256-.655-.451-1.034-.572-.38-.12-.78-.166-1.176-.132-.396.034-.782.145-1.136.329-.353.183-.667.434-.923.739-.256.304-.45.657-.57 1.036-.12.38-.163.78-.128 1.176.035.396.147.782.331 1.135.184.353.436.666.742.921l7.864 6.655c.58.487 1.32.74 2.075.709.756-.032 1.473-.345 2.01-.88 6.515-6.529 11.153-11.744 17.543-18.148.44-.424.74-.972.862-1.57.122-.598.06-1.219-.177-1.781-.237-.563-.639-1.04-1.153-1.37-.513-.33-1.115-.497-1.725-.478z"/>
</svg>
